X:132
T: Die elfjaehrige Markgraefin
N: Q3053J
O: Mitteleuropa, Frankreich
N: Ungenuegend dokumentiert. Melodievergleich zu Q0053 , anderes Lied.
R: ???
M: 3/2
L: 1/8
K: F
F4G2G2 | A2F2c2BAA2GG | F4
c4d2d2 | c2e2f3fecd2 | c2z
cf3e | d3dcAB2 | A3
GF2G2 | A2d2c3BAAGG | F3
EF2G2 | A2d2c3BAAGG | F4

@@@ Tune index: 868
